X:1
T:My Boy Billy
M:4/4
L:1/8
K:C
 BB|
M:5/4
 d2 BB BA G2 GG| c2 c2 e d3 d2|
M:4/4
 dd dB G2 BB| c2 cc C2 CC| D2 G2 B2 AA| G G3- G2 BB| d2 BA G2 GG| GG G2 GG
M:4/4
| c2 cc c2 c2| e d3- d2 dd| d2 dB G2 BB| cc cc C2 CC| D2 G2 B2 AA|\
 G G3- G2||
